X:915
T:Willie Davie
R:Country Dance
B:The Athole Collection
M:C|
L:1/8
K:A
c|e2 ef edcd|e2 ef eaga|e2 df deca|B/B/B ce f2e:|
|:f|a2 ea fedc|a2 ea f2 ef|agae fedc|Bcde f2e:|
|:d|ceea ceea|ceea fedc|ceea ceea|B/B/B ce f2e:|

